img/arrow-up.svg

<svg width="40" height="40" fill="none" xmlns="http://www.w3.org/2000/svg"><path fill="#fff" d="M5 9h30v22H5z"/><path d="M20 0C8.973 0 0 8.973 0 20s8.973 20 20 20c11.029 0 20-8.973 20-20S31.029 0 20 0zm11.086 25.7a3.154 3.154 0 0 1-4.443.37l-6.646-5.627-6.629 5.647a3.154 3.154 0 0 1-4.091-4.799l8.666-7.388a3.155 3.155 0 0 1 4.082-.006l8.693 7.355a3.159 3.159 0 0 1 .368 4.448z" fill="#4592FF"/></svg>

<svg width="40" height="40" viewBox="0 0 40 40" fill="none" xmlns="http://www.w3.org/2000/svg">
<rect x="5" y="9" width="30" height="22" fill="white"/>
<path d="M20 0C8.973 0 0 8.973 0 20C0 31.027 8.973 40 20 40C31.029 40 40 31.027 40 20C40 8.973 31.029 0 20 0ZM31.086 25.7C30.465 26.433 29.576 26.814 28.684 26.816C27.961 26.816 27.237 26.573 26.643 26.07L19.997 20.443L13.368 26.09C12.042 27.222 10.055 27.062 8.923 25.736C7.794 24.41 7.952 22.421 9.277 21.291L17.943 13.903C19.12 12.903 20.847 12.899 22.025 13.897L30.718 21.252C32.047 22.381 32.211 24.371 31.086 25.7Z" fill="#4592FF"/>
</svg>
